X:25
T: WANN KOMMT DIE FROHE STUNDE
N: E0641
O: Europa, Mitteleuropa, Deutschland, Uckermark
R: Liebes - Lied
M: 4/4
L: 1/8
K: C
G2 | E3GGEAG | GFF2z2
DE | F3DG3F | F2E2z2
G2 | c3Ge3c | cAA2z2
A2 | GcEGGFDB, | C4z2

